X:1050
L:1/8
M:6/8
K:D
 d2 A A2 F | GAB A3 | Bcd efg | fed cBA | d2 A A2 F | GAB A3 | Bcd efg | dc d3 :|

